app/images/ZEEEN.svg

<svg width="189" height="43" viewBox="0 0 189 43" xmlns="http://www.w3.org/2000/svg" xmlns:sketch="http://www.bohemiancoding.com/sketch/ns"><title>ZEEEN</title><desc>Created with Sketch.</desc><path d="M0 42.7h33.062v-1.891h-30.134l30.256-39.65v-1.159h-32.147v1.891h29.219l-30.256 39.65v1.159zm40.859 0h30.378v-1.891h-28.304v-18.666h25.315v-1.891h-25.315v-18.361h27.999v-1.891h-30.073v42.7zm37.565 0h30.378v-1.891h-28.304v-18.666h25.315v-1.891h-25.315v-18.361h27.999v-1.891h-30.073v42.7zm37.565 0h30.378v-1.891h-28.304v-18.666h25.315v-1.891h-25.315v-18.361h27.999v-1.891h-30.073v42.7zm37.565 0h2.013v-39.467l31.476 39.467h1.647v-42.7h-2.013v39.162l-31.232-39.162h-1.891v42.7z" sketch:type="MSShapeGroup" fill="#000"/></svg>

<svg width="189" height="43" viewBox="0 0 189 43" xmlns="http://www.w3.org/2000/svg"><title>ZEEEN</title><path d="M0 42.7h33.062v-1.89H2.928L33.184 1.16V0H1.037v1.89h29.22L0 41.54v1.16zm40.86 0h30.377v-1.89H42.933V22.142h25.315v-1.89H42.933V1.89h28V0H40.858v42.7zm37.564 0h30.378v-1.89H80.498V22.142h25.315v-1.89H80.498V1.89h28V0H78.423v42.7zm37.565 0h30.377v-1.89h-28.304V22.142h25.315v-1.89h-25.315V1.89h28V0h-30.074v42.7zm37.564 0h2.013V3.233L187.043 42.7h1.647V0h-2.013v39.162L155.445 0h-1.89v42.7z"/></svg>
